Adwaita++/actions/22/kdenlive-hide-audio.svg

<svg fill="none" height="22" viewBox="0 0 22 22" width="22" xmlns="http://www.w3.org/2000/svg">
  <g fill="#444">
    <path clip-rule="evenodd" d="m6.12713 7.67411 4.54327-4.67411v4.3125l-6.9829 7.0112h-.6875v-6.64736zm2.71986 9.44819 1.82341 1.8777v-3.6719zm4.04621-12.40801v-1.71429c.5343.13619 1.048.3268 1.5347.56587l-1.2595 1.24607c-.0908-.03466-.1825-.06723-.2752-.09765zm4.1336 4.25874c.1998.63919.3077 1.32047.3077 2.02697 0 2.9371-1.8653 5.44-4.4413 6.2857v1.7143c3.4975-.8914 6.1068-4.1143 6.1068-8 0-1.18623-.2432-2.31069-.6806-3.32589zm-4.1358 5.45557v-1.3348l1.984-1.9532c-.0492 1.4256-.8443 2.6461-1.984 3.288z" fill-rule="evenodd"/>
    <path d="m17 3-14 14 2 2 14-14z"/>
  </g>
</svg>

<svg xmlns="http://www.w3.org/2000/svg" fill="none" width="22" height="22" viewBox="0 0 22 22">
 <path fill="#444" fill-rule="evenodd" d="M6.12713 7.67411L10.6704 3V7.3125L3.6875 14.3237H3V7.67634L6.12713 7.67411ZM8.84699 17.1223L10.6704 19V15.3281L8.84699 17.1223ZM12.8932 4.71429V3C13.4275 3.13619 13.9412 3.3268 14.4279 3.56587L13.1684 4.81194C13.0776 4.77728 12.9859 4.74471 12.8932 4.71429ZM17.0268 8.97303C17.2266 9.61222 17.3345 10.2935 17.3345 11C17.3345 13.9371 15.4692 16.44 12.8932 17.2857V19C16.3907 18.1086 19 14.8857 19 11C19 9.81377 18.7568 8.68931 18.3194 7.67411L17.0268 8.97303ZM12.891 14.4286V13.0938L14.875 11.1406C14.8258 12.5662 14.0307 13.7867 12.891 14.4286Z" clip-rule="evenodd"/>
 <path fill="#444" d="M17 3L3 17L5 19L19 5L17 3Z"/>
</svg>
